usr/share/icons/biglinux-icons-material-dark/16/actions/curve-connector.svg

<svg xmlns="http://www.w3.org/2000/svg" viewBox="0 0 16 16">
  <defs id="defs3051">
    <style type="text/css" id="current-color-scheme">
      .ColorScheme-Text {
        color:#dedede;
      }
      .ColorScheme-Highlight {
        color:#3daee9;
      }
      </style>
  </defs>
  <path 
        style="fill:currentColor;fill-opacity:1;stroke:none"
        d="M 4.5 4.0058594 A 2.4999938 2.5000125 0 0 0 2 6.5058594 A 2.4999938 2.5000125 0 0 0 4.5 9.0058594 L 11.5 9.0058594 A 1.4999963 1.5000075 0 0 1 13 10.505859 A 1.4999963 1.5000075 0 0 1 11.5 12.005859 L 4 12.005859 L 4 13.005859 L 11.5 13.005859 A 2.4999938 2.5000125 0 0 0 14 10.505859 A 2.4999938 2.5000125 0 0 0 11.5 8.0058594 L 4.5 8.0058594 A 1.4999963 1.5000075 0 0 1 3 6.5058594 A 1.4999963 1.5000075 0 0 1 4.5 5.0058594 L 12 5.0058594 L 12 4.0058594 L 4.5 4.0058594 z "
        class="ColorScheme-Text"
        />
  <path 
        style="fill:currentColor;fill-opacity:1;stroke:none"
        d="M 12.5 3.0019531 A 1.5 1.5 0 0 0 11 4.5019531 A 1.5 1.5 0 0 0 12.5 6.0019531 A 1.5 1.5 0 0 0 14 4.5019531 A 1.5 1.5 0 0 0 12.5 3.0019531 z M 12.5 4.0019531 A 0.50000025 0.500001 0 0 1 13 4.5019531 A 0.50000025 0.500001 0 0 1 12.5 5.0019531 A 0.50000025 0.500001 0 0 1 12 4.5019531 A 0.50000025 0.500001 0 0 1 12.5 4.0019531 z M 3.5 11.001953 A 1.5 1.5 0 0 0 2 12.501953 A 1.5 1.5 0 0 0 3.5 14.001953 A 1.5 1.5 0 0 0 5 12.501953 A 1.5 1.5 0 0 0 3.5 11.001953 z M 3.5 12.001953 A 0.50000025 0.500001 0 0 1 4 12.501953 A 0.50000025 0.500001 0 0 1 3.5 13.001953 A 0.50000025 0.500001 0 0 1 3 12.501953 A 0.50000025 0.500001 0 0 1 3.5 12.001953 z "
        class="ColorScheme-Highlight"
        />
</svg>

<svg xmlns="http://www.w3.org/2000/svg" viewBox="0 0 16 16">
<defs id="defs3051">
<style id="current-color-scheme" type="text/css">
.ColorScheme-Text{color:#dedede}.ColorScheme-Highlight{color:#3daee9}
</style>
</defs>
<path d="M4.5 4.006a2.5 2.5 0 0 0-2.5 2.5 2.5 2.5 0 0 0 2.5 2.5h7a1.5 1.5 0 0 1 1.5 1.5 1.5 1.5 0 0 1-1.5 1.5H4v1h7.5a2.5 2.5 0 0 0 2.5-2.5 2.5 2.5 0 0 0-2.5-2.5h-7a1.5 1.5 0 0 1-1.5-1.5 1.5 1.5 0 0 1 1.5-1.5H12v-1z" class="ColorScheme-Text" style="fill:currentColor;fill-opacity:1;stroke:none"/>
<path d="M12.5 3.002a1.5 1.5 0 0 0-1.5 1.5 1.5 1.5 0 0 0 1.5 1.5 1.5 1.5 0 0 0 1.5-1.5 1.5 1.5 0 0 0-1.5-1.5m0 1a.5.5 0 0 1 .5.5.5.5 0 0 1-.5.5.5.5 0 0 1-.5-.5.5.5 0 0 1 .5-.5m-9 7a1.5 1.5 0 0 0-1.5 1.5 1.5 1.5 0 0 0 1.5 1.5 1.5 1.5 0 0 0 1.5-1.5 1.5 1.5 0 0 0-1.5-1.5m0 1a.5.5 0 0 1 .5.5.5.5 0 0 1-.5.5.5.5 0 0 1-.5-.5.5.5 0 0 1 .5-.5" class="ColorScheme-Highlight" style="fill:currentColor;fill-opacity:1;stroke:none"/>
</svg>
